app/dist/common/images/vp-plc.svg

<svg fill="none" height="18" viewBox="0 0 18 18" width="18" xmlns="http://www.w3.org/2000/svg" xmlns:xlink="http://www.w3.org/1999/xlink"><linearGradient id="a" gradientUnits="userSpaceOnUse" x1="9" x2="9" y1="4.3125" y2="12.75"><stop offset="0" stop-color="#bcbcc1"/><stop offset=".715247" stop-color="#5b5c5e"/></linearGradient><path d="m0 0h18v18h-18z" fill="#f0f3fa"/><g clip-rule="evenodd" fill-rule="evenodd"><path d="m12.7864 4h-7.57278c-.66749 0-1.21362.54613-1.21362 1.21362v7.57278c0 .6675.54613 1.2136 1.21362 1.2136h7.57278c.6675 0 1.2136-.5461 1.2136-1.2136v-7.57278c0-.66749-.5461-1.21362-1.2136-1.21362zm-.2366.3125h-7.09956c-.62577 0-1.13774.51197-1.13774 1.13774v7.09956c0 .6257.51197 1.1377 1.13774 1.1377h7.09956c.6257 0 1.1377-.512 1.1377-1.1377v-7.09956c0-.62577-.512-1.13774-1.1377-1.13774z" fill="#59595b"/><path d="m5.45024 4.3125h7.09956c.6257 0 1.1377.51197 1.1377 1.13774v7.09956c0 .6257-.512 1.1377-1.1377 1.1377h-7.09956c-.62577 0-1.13774-.512-1.13774-1.1377v-7.09956c0-.62577.51197-1.13774 1.13774-1.13774z" fill="#3b3b3b"/><path d="m5.45088 4.3125h7.10352c.5893 0 1.0778.45208 1.1331 1.02535-.6902 2.46207-2.2617 3.15544-5.83353 4.17011-2.30236.65404-3.19232 2.05574-3.51826 3.24204-.01523-.0736-.02321-.1497-.02321-.2276v-7.07594c0-.62369.51226-1.13396 1.13838-1.13396z" fill="url(#a)"/><path d="m9 6h-1.20131l-.79871 2.16872-.79867-2.16872h-1.20131l1.47308 4h1.05383z" fill="#f0f3fa"/><path d="m10.007 8.25564c.0624-.03135.5357-.25564 1.3188-.25564.842 0 1.6742.43518 1.6742 1.39815 0 .94405-.3627 1.57665-2 1.60115v1.0007h-1v-3.74074-.00535zm.993.34504v1.79882c.5847-.0059 1-.0822 1-.98346 0-.76874-.7162-.82374-1-.81536z" fill="#f0f3fa"/></g></svg>

<!-- by TradingView --><svg width="18" height="18" viewBox="0 0 18 18" fill="none" xmlns="http://www.w3.org/2000/svg">
<rect width="18" height="18" fill="#F0F3FA"/>
<path fill-rule="evenodd" clip-rule="evenodd" d="M12.7864 4H5.21362C4.54613 4 4 4.54613 4 5.21362V12.7864C4 13.4539 4.54613 14 5.21362 14H12.7864C13.4539 14 14 13.4539 14 12.7864V5.21362C14 4.54613 13.4539 4 12.7864 4ZM12.5498 4.3125H5.45024C4.82447 4.3125 4.3125 4.82447 4.3125 5.45024V12.5498C4.3125 13.1755 4.82447 13.6875 5.45024 13.6875H12.5498C13.1755 13.6875 13.6875 13.1755 13.6875 12.5498V5.45024C13.6875 4.82447 13.1755 4.3125 12.5498 4.3125Z" fill="#59595B"/>
<path fill-rule="evenodd" clip-rule="evenodd" d="M5.45024 4.3125H12.5498C13.1755 4.3125 13.6875 4.82447 13.6875 5.45024V12.5498C13.6875 13.1755 13.1755 13.6875 12.5498 13.6875H5.45024C4.82447 13.6875 4.3125 13.1755 4.3125 12.5498V5.45024C4.3125 4.82447 4.82447 4.3125 5.45024 4.3125Z" fill="#3B3B3B"/>
<path fill-rule="evenodd" clip-rule="evenodd" d="M5.45088 4.3125H12.5544C13.1437 4.3125 13.6322 4.76458 13.6875 5.33785C12.9973 7.79992 11.4258 8.49329 7.85397 9.50796C5.55161 10.162 4.66165 11.5637 4.33571 12.75C4.32048 12.6764 4.3125 12.6003 4.3125 12.5224V5.44646C4.3125 4.82277 4.82476 4.3125 5.45088 4.3125Z" fill="url(#paint0_linear_5825_209827)"/>
<path fill-rule="evenodd" clip-rule="evenodd" d="M9 6H7.79869L6.99998 8.16872L6.20131 6H5L6.47308 10H7.52691L9 6Z" fill="#F0F3FA"/>
<path fill-rule="evenodd" clip-rule="evenodd" d="M10.007 8.25564C10.0694 8.22429 10.5427 8 11.3258 8C12.1678 8 13 8.43518 13 9.39815C13 10.3422 12.6373 10.9748 11 10.9993V12H10V8.25926V8.25391L10.007 8.25564ZM11 8.60068V10.3995C11.5847 10.3936 12 10.3173 12 9.41604C12 8.6473 11.2838 8.5923 11 8.60068Z" fill="#F0F3FA"/>
<defs>
<linearGradient id="paint0_linear_5825_209827" x1="9" y1="4.3125" x2="9" y2="12.75" gradientUnits="userSpaceOnUse">
<stop stop-color="#BCBCC1"/>
<stop offset="0.715247" stop-color="#5B5C5E"/>
</linearGradient>
</defs>
</svg>
